public/svgs/mood-easygoing.svg

<svg width="95" height="63" viewBox="0 0 95 63" fill="none" xmlns="http://www.w3.org/2000/svg">
<mask id="mask0_2608_26042" style="mask-type:alpha" maskUnits="userSpaceOnUse" x="0" y="0" width="95" height="63">
<rect width="95" height="63" fill="#F2F2F2"/>
</mask>
<g mask="url(#mask0_2608_26042)">
<g style="mix-blend-mode:overlay" opacity="0.3" filter="url(#filter0_f_2608_26042)">
<path fill-rule="evenodd" clip-rule="evenodd" d="M74.2241 31.5517C80.1755 31.5517 85 26.7272 85 20.7759C85 14.8245 80.1755 10 74.2241 10C68.2728 10 63.4483 14.8245 63.4483 20.7759C63.4483 26.7272 68.2728 31.5517 74.2241 31.5517ZM66.0345 44.9138C66.0345 53.0704 59.9112 59.7969 52.0107 60.7471C52.1627 61.7691 52.2414 62.815 52.2414 63.8793C52.2414 75.5439 42.7853 85 31.1207 85C19.4561 85 10 75.5439 10 63.8793C10 52.2147 19.4561 42.7586 31.1207 42.7586C32.185 42.7586 33.2309 42.8373 34.2529 42.9893C35.2031 35.0888 41.9296 28.9655 50.0862 28.9655C58.8942 28.9655 66.0345 36.1058 66.0345 44.9138Z" fill="#121212"/>
</g>
</g>
<defs>
<filter id="filter0_f_2608_26042" x="6" y="6" width="83" height="83" filterUnits="userSpaceOnUse" color-interpolation-filters="sRGB">
<feFlood flood-opacity="0" result="BackgroundImageFix"/>
<feBlend mode="normal" in="SourceGraphic" in2="BackgroundImageFix" result="shape"/>
<feGaussianBlur stdDeviation="2" result="effect1_foregroundBlur_2608_26042"/>
</filter>
</defs>
</svg>

<svg width="95" height="63" fill="none" xmlns="http://www.w3.org/2000/svg"><mask id="a" style="mask-type:alpha" maskUnits="userSpaceOnUse" x="0" y="0" width="95" height="63"><path fill="#F2F2F2" d="M0 0h95v63H0z"/></mask><g style="mix-blend-mode:overlay" opacity=".3" filter="url(#b)" mask="url(#a)"><path fill-rule="evenodd" clip-rule="evenodd" d="M74.224 31.552C80.175 31.552 85 26.727 85 20.776S80.175 10 74.224 10s-10.776 4.825-10.776 10.776 4.825 10.776 10.776 10.776Zm-8.19 13.362c0 8.156-6.123 14.883-14.023 15.833.152 1.022.23 2.068.23 3.132C52.241 75.544 42.785 85 31.121 85 19.456 85 10 75.544 10 63.88c0-11.665 9.456-21.121 21.12-21.121 1.065 0 2.11.078 3.133.23.95-7.9 7.677-14.023 15.833-14.023 8.808 0 15.948 7.14 15.948 15.948Z" fill="#121212"/></g><defs><filter id="b" x="6" y="6" width="83" height="83" filterUnits="userSpaceOnUse" color-interpolation-filters="sRGB"><feFlood flood-opacity="0" result="BackgroundImageFix"/><feBlend in="SourceGraphic" in2="BackgroundImageFix" result="shape"/><feGaussianBlur stdDeviation="2" result="effect1_foregroundBlur_2608_26042"/></filter></defs></svg>
